javascript.info/1-js/2-first-steps/5-variables/variable.svg

<?xml version="1.0" encoding="UTF-8" standalone="no"?>
<svg width="166px" height="145px" viewBox="0 0 166 145" version="1.1" xmlns="http://www.w3.org/2000/svg" xmlns:xlink="http://www.w3.org/1999/xlink">
    <defs></defs>
    <g id="combined" stroke="none" stroke-width="1" fill="none" fill-rule="evenodd">
        <g id="variable">
            <g id="noun_1211_cc-+-Message" transform="translate(13.000000, 3.000000)">
                <g id="noun_1211_cc">
                    <path d="M17,37.1960457 L129.557785,37.1960457 L129.557785,80.1456641 C129.557785,80.5185728 129.479295,81.0083855 129.279367,81.4404861 C129.07944,81.8725868 112.704625,117 112.704625,117 L112.704625,62.6396695 L129.559266,37.1960457 L148,9 L35.4407339,9 L17,37.1960457 L17,37.1960457 Z" id="Shape" fill="#E8C48F"></path>
                    <path d="M17,66 L17,38 L2,66" id="Shape" fill="#E8C48F"></path>
                    <g id="Rectangle-5-+-&quot;World!&quot;" transform="translate(15.000000, 0.000000)">
                        <path d="M18.9106925,0.395208397 L73.4146415,58.8435379 L55.0893075,75.9321883 L0.585358502,17.4838588 L18.9106925,0.395208397 L18.9106925,0.395208397 Z" id="Rectangle-5" stroke="#8A704D" stroke-width="2" fill="#FFF9EB"></path>
                        <text id="&quot;Hello!&quot;" transform="translate(39.885486, 40.782373) rotate(47.000000) translate(-39.885486, -40.782373) " font-family="Open Sans" font-size="14" font-weight="526" fill="#8A704D">
                            <tspan x="10.392998" y="46.2823729">"Hello!"</tspan>
                        </text>
                    </g>
                    <path d="M0,68 L0,122.729971 C0,126.150501 1.4836395,128 4.38712201,128 L104.473443,128 C107.59502,128 110,125.4521 110,124.524372 L110,68 L0,68 L0,68 Z" id="Shape" fill="#E8C48F"></path>
                </g>
                <text id="Message" font-family="Open Sans" font-size="18" font-weight="526" fill="#FFFFFF">
                    <tspan x="17" y="105">Message</tspan>
                </text>
            </g>
        </g>
    </g>
</svg>

<svg width="148" height="128" viewBox="0 0 148 128" xmlns="http://www.w3.org/2000/svg"><title>noun_1211_cc + Message</title><desc>Created with Sketch.</desc><g fill="none" fill-rule="evenodd"><path d="M17 37.196h112.558v42.95c0 .373-.08.862-.28 1.294-.2.433-16.573 35.56-16.573 35.56V62.64l16.854-25.444L148 9H35.44L17 37.196zM17 66V38L2 66" fill="#E7C392"/><path d="M33.91.395l54.505 58.45L70.09 75.93 15.584 17.484 33.91.394z" stroke="#8A704D" stroke-width="2" fill="#FFF9EB"/><text transform="matrix(.682 .731 -.731 .682 15 0)" font-family="Open Sans" font-size="14" font-weight="526" fill="#8A704D"><tspan x="10.393" y="46.282">&amp;quot;Hello!&amp;quot;</tspan></text><path d="M0 68v54.73c0 3.42 1.484 5.27 4.387 5.27h100.086c3.122 0 5.527-2.548 5.527-3.476V68H0z" fill="#E7C392"/><text font-family="Open Sans" font-size="18" font-weight="526" fill="#fff" transform="translate(-161 -71) translate(161 71)"><tspan x="17" y="105">Message</tspan></text></g></svg>
